X: 41077
T: Trip To Pakistan, The
R: reel
M: 4/4
K: Eminor
|:EGBE G3B|A3G FGAF|EGBE G3B|AFDE FE E2:|
|:EGBE c3A|B3G AGFG|EGBE c3A|BAGA BA A2:|
|:FGBF GBFG|EFGE FGEF|DFAD FADF|AGFG E4:|
|:EGBe e3f/g/|agbg agfg|EGBe e3f/g/|agfg e4:|

